X:1
T: Cecil Teague's Polka Mazurka
O:Moonan Flat, NSW
K: Gmajor
M: 3/4
|:(3 gfe |"G" d2 B2 (3cBA |"C" E2 E2 D>G|"D" A2 A2 B>c|"G" B4 (3gfe|
"G" d2 B2 (3cBA|"C" E2 E2 D>G|A2 A>B c>A |"G" G4 :|
|:D>G|"G" B2 B2 (3cBA |"C" E2 E2 D>G|"D" A2 A>B c>A|"G" B4 D>G|
"G" B2 B2 (3cBA|"C" E2 E2 D>G|"D" A2 A>B c>A|"G" G4:|
